lib/preview_tmp/nrk-logo-preview-nrk-nyheter-title-below-on-dark.svg

<svg width="75" height="40" viewBox="0 0 75 40" fill="none" xmlns="http://www.w3.org/2000/svg">
<path d="M0 15.0033V1.00459H4.59339V15.0033H0ZM10.8428 3.23256L13.4844 15.0033H8.45737L5.30307 1.00459H8.12254C8.76907 0.996197 9.39641 1.22411 9.88691 1.64544C10.3782 2.04909 10.7158 2.60946 10.8428 3.23256ZM14.1744 15.0033V1.00459H18.7678V15.0033H14.1744ZM22.2372 6.3281C21.7422 6.33292 21.2552 6.20342 20.828 5.95344C20.4064 5.70979 20.0563 5.3596 19.8127 4.93801C19.5624 4.5107 19.4329 4.02354 19.4378 3.52835C19.4321 3.03619 19.5618 2.55193 19.8127 2.12848C20.0589 1.71147 20.4086 1.36509 20.828 1.12292C21.2553 0.873236 21.7423 0.74375 22.2372 0.748264C22.7292 0.742965 23.2133 0.872567 23.6369 1.12292C24.0521 1.36721 24.3981 1.7133 24.6424 2.12848C24.893 2.55204 25.0226 3.03623 25.0172 3.52835C25.0218 4.0235 24.8923 4.51058 24.6424 4.93801C24.4007 5.35775 24.0542 5.70764 23.6369 5.95344C23.2133 6.20429 22.7289 6.33392 22.2366 6.3281H22.2372ZM25.7269 15.0033V1.00459H30.3207V15.0033H25.7269ZM36.136 8.65459C36.1489 8.66817 36.2475 8.82918 36.4317 9.13763C36.6159 9.44609 36.8558 9.84045 37.1513 10.3207C37.447 10.8006 37.759 11.3099 38.0874 11.8486C38.4157 12.3873 38.7247 12.8967 39.0143 13.3767C39.3028 13.8567 39.6313 14.3989 40 15.0033H34.9531C34.6375 14.4907 34.3515 14.0274 34.0952 13.6133C33.8389 13.1993 33.5665 12.7523 33.2778 12.2726C32.9884 11.7932 32.7024 11.3266 32.4196 10.8727C32.1368 10.4188 31.8938 10.0212 31.6905 9.67988C31.4863 9.33835 31.3449 9.10829 31.2663 8.98977C31.0713 8.69567 30.9559 8.35599 30.9315 8.00395C30.951 7.66607 31.0597 7.33946 31.2466 7.05728C31.3254 6.92583 31.47 6.69248 31.6803 6.3573C31.8906 6.02212 32.137 5.62454 32.4196 5.16449C32.7021 4.70444 32.9882 4.23452 33.2778 3.75475C33.5674 3.27499 33.8398 2.82476 34.0952 2.40414C34.3519 1.98396 34.6379 1.51733 34.9531 1.00427H40L36.0962 7.37273C35.9754 7.56181 35.9073 7.77972 35.8991 8.00395C35.9121 8.23936 35.9942 8.46569 36.1353 8.65459H36.136Z" fill="white"/>
<path d="M10.0282 31.6652L1.60534 21.0034H0V35.0173H1.86299V24.3497L10.3061 35.0173H11.9113V21.0034H10.0286L10.0282 31.6652Z" fill="#9FDAF5"/>
<path d="M21.7612 25.0497L21.7457 32.4415C21.6013 32.5254 21.4573 32.606 21.3163 32.6784C21.0755 32.8019 20.8273 32.9105 20.5731 33.0037C20.3323 33.0933 20.0834 33.1594 19.8299 33.2011C19.5711 33.2417 19.3093 33.2615 19.0473 33.2603C18.6418 33.2765 18.239 33.188 17.878 33.0034C17.5651 32.8228 17.3238 32.5408 17.1943 32.2044C17.0299 31.7729 16.9523 31.3133 16.966 30.852V24.753L14.9446 25.0491V31.2464C14.9204 31.9947 15.0486 32.74 15.3214 33.4376C15.5404 33.9815 15.9436 34.4319 16.4611 34.7107C17.049 34.9981 17.6989 35.137 18.3534 35.115C18.9 35.1187 19.4431 35.0287 19.959 34.8489C20.4679 34.6676 20.9483 34.4149 21.3856 34.0985C21.5062 34.012 21.6254 33.9202 21.7443 33.8248L21.7424 34.6802C21.7424 35.6671 21.5111 36.4171 21.0487 36.9303C20.5863 37.4435 19.8002 37.7 18.6903 37.7C18.3862 37.7 18.0757 37.6868 17.7588 37.6602C17.4424 37.6342 17.128 37.5881 16.8174 37.5224C16.5069 37.4566 16.193 37.3743 15.8757 37.2757C15.5584 37.177 15.2413 37.0619 14.9244 36.9303L15.1427 38.6869C15.407 38.7918 15.6843 38.8872 15.9748 38.9731C16.2652 39.0591 16.5625 39.1315 16.8666 39.1903C17.1705 39.2495 17.4876 39.2955 17.8179 39.3284C18.1482 39.3613 18.4853 39.3776 18.829 39.3774C19.5459 39.3895 20.2596 39.2795 20.9394 39.0521C21.5146 38.8579 22.044 38.5489 22.4951 38.1438C22.9164 37.7579 23.2451 37.2824 23.4567 36.7526C23.6808 36.1805 23.7918 35.5706 23.7837 34.9565L23.7635 24.7517L21.7612 25.0497Z" fill="#9FDAF5"/>
<path d="M34.4841 25.1481C33.9018 24.8535 33.254 24.711 32.6013 24.7339C32.0196 24.7338 31.4414 24.8236 30.8873 25.0001C30.3242 25.1783 29.7876 25.4307 29.2916 25.7505C29.1423 25.8462 28.998 25.9478 28.8556 26.056V20.1153L26.8341 20.4114V35.0173H28.8556V27.4328C29.0122 27.3472 29.1727 27.2657 29.3408 27.1913C29.6213 27.068 29.9094 26.9625 30.2033 26.8755C30.4862 26.7918 30.7741 26.7258 31.0654 26.6781C31.3372 26.633 31.6122 26.61 31.8878 26.609C32.2047 26.6024 32.5203 26.6525 32.8193 26.7571C33.0715 26.8478 33.2966 27.0006 33.4737 27.2012C33.6555 27.4189 33.7841 27.6756 33.8495 27.9512C33.9346 28.2999 33.9748 28.6579 33.9691 29.0167V35.017H35.9903V28.6022C36.0168 27.8539 35.8884 27.1082 35.6134 26.4113C35.3897 25.8762 34.992 25.4313 34.4841 25.1481Z" fill="#9FDAF5"/>
<path d="M46.6728 26.2242C46.2923 25.7331 45.7903 25.3487 45.2159 25.1086C44.5778 24.8495 43.8936 24.722 43.2046 24.7339C42.5103 24.7221 41.8215 24.8567 41.1831 25.1287C40.6025 25.3818 40.0849 25.7591 39.667 26.2337C39.2365 26.7326 38.9128 27.3136 38.7154 27.9413C38.4895 28.6597 38.3793 29.4092 38.3887 30.1619C38.3606 31.1129 38.5608 32.0569 38.973 32.9153C39.3497 33.6591 39.9581 34.2616 40.7071 34.6325C41.5861 35.0449 42.5505 35.2444 43.5217 35.2148C43.9888 35.2186 44.4557 35.1889 44.9186 35.1259C45.3055 35.0703 45.6868 34.9812 46.0582 34.8595C46.4264 34.7363 46.7844 34.5845 47.1287 34.4055L47.2671 32.8857C47.0161 32.9778 46.7617 33.0699 46.5041 33.162C46.2464 33.2541 45.9789 33.3364 45.7014 33.4087C45.4216 33.4818 45.1367 33.5345 44.8492 33.5663C44.5597 33.5994 44.2686 33.616 43.9772 33.616C43.4569 33.6244 42.9377 33.568 42.4314 33.4482C42.023 33.3509 41.6451 33.1542 41.3318 32.8758C41.015 32.5755 40.7827 32.1978 40.6579 31.7804C40.5284 31.3575 40.4557 30.9195 40.4415 30.4777H47.604C47.7015 29.6613 47.6647 28.8345 47.495 28.0298C47.3556 27.3757 47.0751 26.7596 46.6728 26.2242ZM41.6786 26.6975C42.1436 26.4165 42.6805 26.2761 43.2241 26.2932C43.7685 26.2661 44.306 26.4226 44.7501 26.7374C45.1448 27.0511 45.4266 27.484 45.5528 27.971C45.6516 28.3311 45.7003 28.703 45.6975 29.0763H40.4852C40.522 28.6827 40.6065 28.295 40.7369 27.9216C40.9061 27.4211 41.2373 26.9905 41.6786 26.6975Z" fill="#9FDAF5"/>
<path d="M55.3039 33.4281L54.9669 33.4877C54.8588 33.5069 54.7496 33.52 54.6399 33.5271C54.5339 33.5341 54.4348 33.5367 54.3426 33.5367C54.0389 33.5451 53.7373 33.4843 53.4607 33.359C53.2228 33.2469 53.0255 33.0644 52.8959 32.8363C52.7571 32.5788 52.6887 32.2895 52.6977 31.9975V26.5301H55.4921L55.7101 24.951H52.6977V21.8321L50.6762 22.543V24.951H49.1501L48.9318 26.5301H50.6762V32.412C50.6672 32.8042 50.7276 33.1949 50.8546 33.5663C50.9565 33.8603 51.1147 34.1319 51.3203 34.366C51.5089 34.5744 51.7382 34.7423 51.9942 34.8594C52.2562 34.9791 52.5325 35.0652 52.8163 35.1157C53.0974 35.1674 53.3826 35.1939 53.6684 35.1947C53.8798 35.1947 54.0881 35.1882 54.2931 35.1752C54.4981 35.1623 54.6864 35.1425 54.8579 35.1157C55.0293 35.0894 55.1915 35.0598 55.3435 35.0272C55.4954 34.9946 55.6239 34.9647 55.73 34.9381L55.8488 33.3001C55.7717 33.3298 55.6921 33.3529 55.611 33.3692C55.5182 33.3886 55.4158 33.4087 55.3039 33.4281Z" fill="#9FDAF5"/>
<path d="M65.3024 26.2242C64.9219 25.7331 64.4199 25.3487 63.8457 25.1086C63.2075 24.8495 62.5232 24.722 61.8341 24.7339C61.1399 24.7222 60.451 24.8568 59.8126 25.1287C59.232 25.3819 58.7144 25.7592 58.2964 26.2337C57.8661 26.7325 57.5425 27.3134 57.3452 27.941C57.1193 28.6594 57.0091 29.4088 57.0185 30.1615C56.9905 31.1126 57.1908 32.0565 57.6028 32.915C57.9795 33.6588 58.5879 34.2612 59.337 34.6321C60.216 35.0445 61.1804 35.244 62.1515 35.2144C62.6187 35.2183 63.0855 35.1886 63.5484 35.1256C63.9354 35.07 64.3168 34.9808 64.6883 34.8591C65.0564 34.7361 65.4143 34.5843 65.7585 34.4052L65.8973 32.8854C65.646 32.9775 65.3916 33.0696 65.1339 33.1617C64.8763 33.2538 64.6088 33.336 64.3315 33.4084C64.0517 33.4814 63.7669 33.5341 63.4794 33.566C63.1899 33.5991 62.8987 33.6157 62.6073 33.6157C62.0869 33.624 61.5675 33.5677 61.0612 33.4479C60.6528 33.3504 60.275 33.1538 59.9615 32.8755C59.6449 32.575 59.4127 32.1974 59.2878 31.78C59.1583 31.3572 59.0856 30.9192 59.0717 30.4774H66.2338C66.3314 29.661 66.2947 28.8341 66.1248 28.0295C65.9853 27.3755 65.7047 26.7595 65.3024 26.2242ZM60.308 26.6975C60.7731 26.4165 61.3101 26.276 61.8539 26.2932C62.3982 26.2662 62.9359 26.4226 63.3799 26.7374C63.7746 27.0511 64.0561 27.484 64.1823 27.971C64.2815 28.331 64.3301 28.703 64.3269 29.0763H59.1149C59.1517 28.6827 59.2361 28.295 59.3663 27.9216C59.5357 27.4211 59.8669 26.9906 60.308 26.6975Z" fill="#9FDAF5"/>
<path d="M72.8526 24.8817C72.482 24.9806 72.1281 25.1336 71.8025 25.3356C71.4643 25.5458 71.1516 25.7941 70.8707 26.0758C70.8241 26.1222 70.7786 26.1745 70.732 26.2235V24.753L68.7104 25.0491V35.0167H70.732V27.5601C70.8824 27.4557 71.0379 27.3588 71.198 27.27C71.3963 27.1612 71.6016 27.0656 71.8124 26.9837C72.0168 26.9043 72.2248 26.8353 72.4367 26.7765C72.6541 26.7161 72.876 26.6732 73.1003 26.6482C73.3406 26.6217 73.5826 26.615 73.824 26.6281L74.0618 24.7731C73.6554 24.744 73.2471 24.7807 72.8526 24.8817Z" fill="#9FDAF5"/>
</svg>

<svg xmlns="http://www.w3.org/2000/svg" viewBox="0 0 75 40"><path fill="#fff" d="M0 15.003V1.005h4.593v13.998H0Zm10.843-11.77 2.641 11.77H8.457L5.303 1.005h2.82a2.655 2.655 0 0 1 1.764.64c.491.404.829.964.956 1.588Zm3.331 11.77V1.005h4.594v13.998h-4.594Zm8.063-8.675a2.737 2.737 0 0 1-1.409-.375 2.778 2.778 0 0 1-1.015-1.015 2.735 2.735 0 0 1-.375-1.41 2.685 2.685 0 0 1 .375-1.4 2.812 2.812 0 0 1 3.824-1.005c.415.244.761.59 1.005 1.005.251.424.38.908.375 1.4.005.496-.125.983-.375 1.41a2.8 2.8 0 0 1-1.005 1.015c-.424.251-.908.38-1.4.375Zm3.49 8.675V1.005h4.594v13.998h-4.594Zm10.409-6.348c.013.013.111.174.296.483.184.308.424.702.72 1.183a377.185 377.185 0 0 1 1.862 3.056c.289.48.617 1.022.986 1.626h-5.047l-.858-1.39c-.256-.414-.529-.86-.817-1.34-.29-.48-.576-.946-.858-1.4a71.06 71.06 0 0 1-.73-1.193 21.112 21.112 0 0 0-.424-.69 2.04 2.04 0 0 1-.334-.986c.019-.338.128-.665.315-.947.078-.131.223-.365.433-.7a216.7 216.7 0 0 0 1.598-2.603l.817-1.35.858-1.4H40l-3.904 6.369c-.12.189-.189.407-.197.63.013.236.095.463.236.652h.001Z"/><path fill="#9FDAF5" d="M10.028 31.665 1.605 21.003H0v14.014h1.863V24.35l8.443 10.667h1.605V21.003H10.03v10.662ZM21.761 25.05l-.015 7.391a9.513 9.513 0 0 1-.43.237c-.24.124-.489.233-.743.326-.24.09-.49.155-.743.197-.259.04-.52.06-.783.06a2.361 2.361 0 0 1-1.169-.258 1.577 1.577 0 0 1-.684-.799 3.506 3.506 0 0 1-.228-1.352v-6.099l-2.021.296v6.197a5.525 5.525 0 0 0 .376 2.192c.22.543.623.994 1.14 1.273a4.003 4.003 0 0 0 1.892.404 4.78 4.78 0 0 0 1.606-.266c.509-.181.99-.434 1.427-.75.12-.087.24-.179.358-.274l-.002.855c0 .987-.23 1.737-.693 2.25-.463.514-1.249.77-2.359.77-.304 0-.614-.013-.931-.04a7.528 7.528 0 0 1-.942-.138 10.532 10.532 0 0 1-1.893-.592l.219 1.757a9.746 9.746 0 0 0 2.675.641c.33.033.667.05 1.011.05a6.317 6.317 0 0 0 2.11-.326 4.467 4.467 0 0 0 1.556-.908c.421-.386.75-.862.962-1.391a4.752 4.752 0 0 0 .327-1.797l-.02-10.204-2.003.298ZM34.484 25.148a3.87 3.87 0 0 0-1.883-.414c-.581 0-1.16.09-1.714.266a6.644 6.644 0 0 0-2.031 1.056v-5.94l-2.022.295v14.606h2.022v-7.584a6.465 6.465 0 0 1 1.347-.558c.283-.083.571-.15.862-.197.272-.045.547-.068.823-.069.317-.007.632.043.931.148.252.09.478.244.655.444.182.218.31.475.376.75.085.349.125.707.12 1.066v6h2.02v-6.415a5.444 5.444 0 0 0-.377-2.19 2.591 2.591 0 0 0-1.129-1.264ZM46.673 26.224a3.598 3.598 0 0 0-1.457-1.115 5.112 5.112 0 0 0-2.011-.375 4.943 4.943 0 0 0-2.022.395 4.32 4.32 0 0 0-1.516 1.105 4.833 4.833 0 0 0-.952 1.707 7.107 7.107 0 0 0-.326 2.22 5.954 5.954 0 0 0 .584 2.754 3.866 3.866 0 0 0 1.734 1.718 6.183 6.183 0 0 0 2.815.582 9.77 9.77 0 0 0 1.397-.09 6.737 6.737 0 0 0 2.21-.72l.138-1.52c-.25.093-.505.185-.763.277a9.503 9.503 0 0 1-.803.247c-.28.073-.564.126-.852.157-.29.033-.58.05-.872.05a6.273 6.273 0 0 1-1.546-.168 2.543 2.543 0 0 1-1.1-.572c-.316-.3-.548-.678-.673-1.096a4.997 4.997 0 0 1-.217-1.302h7.163a7.533 7.533 0 0 0-.109-2.448 4.603 4.603 0 0 0-.822-1.806Zm-4.994.474a2.817 2.817 0 0 1 1.545-.405 2.43 2.43 0 0 1 1.526.444c.395.314.677.747.803 1.234.099.36.147.732.145 1.105h-5.213a4.88 4.88 0 0 1 .252-1.154c.17-.5.5-.931.942-1.224ZM55.304 33.428l-.337.06c-.108.019-.217.032-.327.04-.106.006-.205.009-.297.009a2.003 2.003 0 0 1-.882-.178 1.274 1.274 0 0 1-.565-.523 1.66 1.66 0 0 1-.198-.838V26.53h2.794l.218-1.579h-3.012v-3.119l-2.022.711v2.408H49.15l-.218 1.58h1.744v5.881c-.009.392.052.783.179 1.154.102.294.26.566.465.8.189.208.418.376.674.493.262.12.538.206.822.257.281.051.567.078.852.079.212 0 .42-.007.625-.02.205-.013.393-.032.565-.06.171-.026.334-.055.486-.088.151-.032.28-.062.386-.089l.119-1.638c-.077.03-.157.053-.238.07-.093.019-.195.039-.307.058ZM65.302 26.224a3.599 3.599 0 0 0-1.456-1.115 5.113 5.113 0 0 0-2.012-.375 4.947 4.947 0 0 0-2.021.395c-.581.253-1.099.63-1.517 1.105a4.832 4.832 0 0 0-.95 1.707 7.106 7.106 0 0 0-.327 2.22 5.958 5.958 0 0 0 .584 2.754 3.866 3.866 0 0 0 1.734 1.717 6.183 6.183 0 0 0 2.814.582c.468.004.934-.025 1.397-.088a6.74 6.74 0 0 0 2.21-.72l.14-1.52c-.252.091-.506.184-.764.276a9.545 9.545 0 0 1-.802.246c-.28.073-.565.126-.853.158-.29.033-.58.05-.872.05a6.28 6.28 0 0 1-1.546-.168 2.547 2.547 0 0 1-1.1-.572 2.498 2.498 0 0 1-.673-1.096 4.983 4.983 0 0 1-.216-1.303h7.162a7.525 7.525 0 0 0-.11-2.448 4.603 4.603 0 0 0-.822-1.805Zm-4.994.474a2.817 2.817 0 0 1 1.546-.405 2.43 2.43 0 0 1 1.526.444c.395.314.676.747.802 1.234.1.36.148.732.145 1.105h-5.212a4.89 4.89 0 0 1 .251-1.154c.17-.5.5-.931.942-1.224ZM72.853 24.882a3.9 3.9 0 0 0-1.05.454 5.17 5.17 0 0 0-.932.74c-.047.046-.092.098-.139.148v-1.471l-2.022.296v9.968h2.022V27.56a5.169 5.169 0 0 1 1.08-.576c.205-.08.413-.149.625-.207a4.229 4.229 0 0 1 1.387-.149l.238-1.855a3.785 3.785 0 0 0-1.21.109Z"/></svg>
